src/pos-icons/book.svg

<svg height="24" viewBox="0 0 24 24" width="24" xmlns="http://www.w3.org/2000/svg"><path d="m18 22a2 2 0 0 0 2-2v-16c0-1.11-.9-2-2-2h-6v7l-2.5-1.5-2.5 1.5v-7h-1a2 2 0 0 0 -2 2v16a2 2 0 0 0 2 2z"/></svg>

<?xml version="1.0" encoding="UTF-8"?><!DOCTYPE svg PUBLIC "-//W3C//DTD SVG 1.1//EN" "http://www.w3.org/Graphics/SVG/1.1/DTD/svg11.dtd"><svg xmlns="http://www.w3.org/2000/svg" xmlns:xlink="http://www.w3.org/1999/xlink" version="1.1" id="mdi-book" width="24" height="24" viewBox="0 0 24 24"><path d="M18,22A2,2 0 0,0 20,20V4C20,2.89 19.1,2 18,2H12V9L9.5,7.5L7,9V2H6A2,2 0 0,0 4,4V20A2,2 0 0,0 6,22H18Z" /></svg>
